!!!!SEGMENT: pl-kk--kk-i-388--014_anonim--oycze-wiekow-pelen-chwaly.krn
!!!cenid: 18xx:1411
!!!COM: Anonim
!!!COM-rismID: pe30004985
!!!CDT:
!!!CNT:
!!!OTL: Oycze wieków pełen chwały
!!!PDT:
!!!AGN: Sacred
!!!SMS-siglum: PL-Kk
!!!SMS-shelfmark: Kk.I.388
!!!SMS-shelfwork: 014 W
!!!SMS-variant:
!!!SMS-altvar:
!!!NIFC-rismSourceID: 1001140238
!!!NIFC-rismChildID: 1001140924
!!!NIFC-islandoraID: pl-kk:6939
!!!URL-pdf-islandora: https://repozytorium.nifc.pl/islandora/object/pl-kk%3A6939/datastream/PDF/view
!!!URL-scan: https://polish.musicsources.pl/pl/lokalizacje/galeria/rekopisy/5998 @EN{Scan on Polish Music Sources Website} @PL{Skany w portalu Dziedzictwo Muzyki Polskiej w otwartym dostępie}
!!!ONB-nifc:
!!!AIN: 1 alto 1 bass 1 soprn 1 tenor
!!!key:
**kern	**text	**kern	**text	**kern	**text	**kern	**text
*part4	*part4	*part3	*part3	*part2	*part2	*part1	*part1
*staff4	*staff4	*staff3	*staff3	*staff2	*staff2	*staff1	*staff1
*Ibass	*	*Itenor	*	*Ialto	*	*Isoprn	*
*I"Basso.	*	*I"Tenore.	*	*I"Alto.	*	*I"Soprano.	*
*I'B	*	*I'T	*	*I'A	*	*I'S	*
*clefF4	*	*clefC4	*	*clefC3	*	*clefC1	*
*k[f#c#g#]	*	*k[c#f#g#]	*	*k[f#c#g#]	*	*k[c#f#g#]	*
*A:	*	*A:	*	*A:	*	*A:	*
*M3/4	*	*M3/4	*	*M3/4	*	*M3/4	*
=1	=1	=1	=1	=1	=1	=1	=1
*all\right	*	*all\right	*	*all\right	*	*all\right	*
*2\right	*	*2\right	*	*2\right	*	*2\right	*
!LO:TX:a:t=in A.	!	!	!	!	!	!LO:TX:t=P:problem=kolejność znaków cc# f# g#	!
!LO:TX:a:t=No 14.	!	!LO:TX:a:t=No 14.	!	!LO:TX:a:t=No 14.sty.	!	!LO:TX:a:t=No 14.sty	!
2AA/	Oy-	2A\	Oy-	2e\	Oy-	2cc#\	Oy-
4AA/	-cze	4A\	-cze	4c#\	-cze	4a\	-cze
=2	=2	=2	=2	=2	=2	=2	=2
2AA/	Wie-	2A\	Wie-	2c#\	Wie-	2ee\	Wie-
4AA/	-kow	4A\	-kow	4e\	-kow	4cc#\	-kow
=3	=3	=3	=3	=3	=3	=3	=3
2AA/	pe-	2G#/	pe-	2d\	pe-	4.b\	pe-
.	.	.	.	.	.	8dd\	.
4AA/	-łen	4G#/	-łen	4d\	-łen	8cc#\L	-łen
.	.	.	.	.	.	8b\J	.
=4	=4	=4	=4	=4	=4	=4	=4
2AA/	Chwa-	2A\	chwa-	2c#\	Chwa-	2a\	chwa-
.	.	.	.	.	.	16qqcc#/LL	.
.	.	.	.	.	.	16qqb/JJ	.
4AA/	-ły	4A\	-ły	4c#\	-ły,	4a\	-ły,
=5	=5	=5	=5	=5	=5	=5	=5
4F#\	Chwa-	4A\	chwa-	4a\	Chwa-	4cc#\	chwa-
8FF#/L	-ły	4c#\	-ły	4a\	-ły	4ff#\	-ły
8GG#/J	.	.	.	.	.	.	.
8AA/L	bez	4c#\	bez	4f#\	bez	4ee\	bez
8AA#X/J	.	.	.	.	.	.	.
=6	=6	=6	=6	=6	=6	=6	=6
4BB/	gra-	4B\	Gra-	2f#\	gra-	2dd#X\	gra-
4BB#X/	.	4A\	.	.	.	.	.
4C#/	-nic	8G#\L	-nic	8e\L	-nic	8ee\L	-nic
.	.	8e\J	.	8a#X\J	.	8ff#\J	.
!LO:LB:g=original	!	!	!	!	!	!LO:LB:g=original	!
=7	=7	=7	=7	=7	=7	=7	=7
2BB/	a-	2e\	a-	2b\	a-	2gg#\	a-
4BB/	-ni	4d#X\	-ni	8b\L	-ni	4ff#\	-ni
.	.	.	.	8an\J	.	.	.
!	!	!LO:LB:g=original	!	!LO:LB:g=original	!	!	!
=8	=8	=8	=8	=8	=8	=8	=8
4E\	Kon-	4e\	Koń-	4g#\	Kon-	4ee\	Kon-
4E\	-ca,	4e\	-ca,	4g#\	-ca,	4ee\	-ca,
4r	.	4r	.	4r	.	4r	.
=9	=9	=9	=9	=9	=9	=9	=9
4AA/	z_kto-	4A\	z_kto-	8e\L	z_kto-	4cc#\	z_kto-
.	.	.	.	8d#X\J	.	.	.
4AA/	-re-	4A\	-re-	8e\L	-re-	4cc#\	-re-
.	.	.	.	8dn\J	.	.	.
4AA/	-go	4A\	-go	4c#/	-go	4a\	-go
=10	=10	=10	=10	=10	=10	=10	=10
2.AA/	Ło-	8c#\L	Ło-	8e\L	Ło-	2ee\	Ło-
.	.	8B#X\	.	8d#X\	.	.	.
.	.	8c#\	.	8e\	.	.	.
.	.	8Bn\J	.	8g#\J	.	.	.
.	.	4A\	.	8a\L	.	4cc#\	-na
.	.	.	.	8e\J	.	.	.
=11	=11	=11	=11	=11	=11	=11	=11
8AA/L	-na	2G#/	-na,	4.dn\	-na	4.b\	po-
8GG#/J	.	.	.	.	.	.	.
2AA/	po-	.	.	.	.	.	.
.	.	.	.	.	.	32qqcc#/LLL	.
.	.	.	.	.	.	32qqb/	.
.	.	.	.	.	.	32qqa#X/	.
.	.	.	.	.	.	32qqb/JJJ	.
.	.	.	.	8f#\	.	8dd\	.
.	.	4G#/	po-	8e\L	po-	8cc#\L	.
.	.	.	.	8d\J	.	8b\J	.
=12	=12	=12	=12	=12	=12	=12	=12
4AA/	-wsta-	8G#/L	-wsta-	8d\L	-wsta-	8b\L	-wsta-
.	.	8A/J	.	8c#\J	.	8a\J	.
2AA/	-ły	2A\	-ły	2c#\	-ły	2a\	-ły,
=13	=13	=13	=13	=13	=13	=13	=13
2D\	Księ-	2B\	Księ-	2.f#\	Księ-	4b\	Księ-
.	.	.	.	.	.	4ff#\	.
4C#/	.	4A#X\	.	.	.	4ee\	.
!	!	!	!	!LO:LB:g=original	!	!LO:LB:g=original	!
=14	=14	=14	=14	=14	=14	=14	=14
4.C#/	-ży-	4.A#X\	-ży-	2f#\	-ży-	4.ee\	-ży-
8BB/	.	8B\	.	.	.	8dd\	.
8C#/L	-ce	4F#/	-ce	8a\L	-ce	8cc#\L	-ce,
8D/J	.	.	.	8b\J	.	8b\J	.
!LO:LB:g=original	!	!LO:LB:g=original	!	!	!	!	!
=15	=15	=15	=15	=15	=15	=15	=15
4E\	Gwia-	4E/	Gwia-	8cc#\L	Gwia-	8a\L	Gwia-
.	.	.	.	8g#\J	.	8b\J	.
4E\	-zdy	4E/	-zdy	4a\	-zdy	4cc#\	-zdy
4E\	i	4G#/	i	8e\L	i	4b\	i
.	.	.	.	8d\J	.	.	.
=16	=16	=16	=16	=16	=16	=16	=16
.	.	.	.	.	.	8qb/	.
4A\	ſłon-	4A\	ſłon-	4c#\	ſłon-	4a\	ſłon-
4AA/	-ca,	4A\	-ca,	4c#\	-ca,	4a\	-ca,
4r	.	4r	.	4r	.	4r	.
=17	=17	=17	=17	=17	=17	=17	=17
4AA/	Ty	4A\	Ty	4e\	Ty	4cc#\	Ty
4AA/	ie-	4A\	ie-	4e\	ie-	4cc#\	ie-
4AA/	-den	4A\	-den,	4c#\	-den	4a\	-den
=18	=18	=18	=18	=18	=18	=18	=18
2.AA/	o-	2.A\	o-	2c#\	o-	2ee\	o-
.	.	.	.	4e\	.	4cc#\	.
=19	=19	=19	=19	=19	=19	=19	=19
2AA/	-be-	2G#/	-bec-	2d\	-bec-	16b\LL	-be-
.	.	.	.	.	.	16cc#\	.
.	.	.	.	.	.	16b\	.
.	.	.	.	.	.	16a#X\JJ	.
.	.	.	.	.	.	8b\L	.
.	.	.	.	.	.	8dd\	.
4AA/	-cny	4G#/	-ny	4d\	-ny	8cc#\	-cny
.	.	.	.	.	.	8b\J	.
!	!	!	!	!	!	!LO:LB:g=original	!
=20	=20	=20	=20	=20	=20	=20	=20
2AA/	wszę-	2E/	wszę-	2c#\	wszę-	2a\	wszę-
.	.	.	.	16qqe/LL	.	16qqcc#/LL	.
.	.	.	.	16qqd/JJ	.	16qqb/JJ	.
4AA/	-dzie,	4A\	-dzie	4c#\	-dzie	4a\	-dzie,
!	!	!	!	!LO:LB:g=original	!	!	!
=21	=21	=21	=21	=21	=21	=21	=21
4F#\	Ty	4A\	Ty	2a\	Ty	4cc#\	Ty
8FF#/L	.	2c#\	.	.	.	4ff#\	.
8GG#/	.	.	.	.	.	.	.
8AA/	.	.	.	4f#\	.	4ee\	.
8AA#X/J	.	.	.	.	.	.	.
=22	=22	=22	=22	=22	=22	=22	=22
4BB/	ie-	4B\	ie-	2f#\	ie-	2dd#X\	ie-
4BB#X/	.	4A\	.	.	.	.	.
4C#/	-den	8G#\L	-den	8e\L	-den	8ee\L	-den
.	.	8e\J	.	8a#X\J	.	8ff#\J	.
!LO:LB:g=original	!	!LO:LB:g=original	!	!	!	!	!
=23	=23	=23	=23	=23	=23	=23	=23
2BB/	z_na-	4.e\	z_na-	2b\	z_na-	4.gg#\	z_na-
.	.	16f#\LL	.	.	.	16aa\LL	.
.	.	16e\JJ	.	.	.	16gg#\JJ	.
8BB/	-mi	8d#X\L	-mi	8b\	-mi,	8ff#\L	-mi
8BB/	i	16e\L	i	8a\	i	16gg#\L	.
.	.	16d#\JJ	.	.	.	16ff#\JJ	.
=24	=24	=24	=24	=24	=24	=24	=24
4E\	w_Nie-	4e\	w_Nie-	4g#\	w_Nie-	4ee\	w_Nie-
4E\	-bie,	4e\	-bie,	4g#\	-bie,	4ee\	-bie,
4r	.	4r	.	4r	.	4r	.
=25	=25	=25	=25	=25	=25	=25	=25
8AA/L	Kro-	2A\	Kro-	2e\	Kro-	2cc#\	Kro-
8GG#/	.	.	.	.	.	.	.
8AA/	.	.	.	.	.	.	.
8GG#/J	.	.	.	.	.	.	.
4AA/	-lu	4A\	-lu	4e\	-lu	4a\	-lu
=26	=26	=26	=26	=26	=26	=26	=26
2AA/	Chwa-	8c#\L	Chwa-	8e\L	Chwa-	2ee\	Chwa-
.	.	8B#X\	.	8d#X\	.	.	.
.	.	8c#\	.	8e\	.	.	.
.	.	8Bn\J	.	8dn\J	.	.	.
4AA/	-ły	4A\	-ły	4c#\	-ły	4cc#\	-ły
!	!	!	!	!	!	!LO:LB:g=original	!
=27	=27	=27	=27	=27	=27	=27	=27
2AA/	Oy-	2G#/	Oy-	2d\	Oy-	8b\L	Oy-
.	.	.	.	.	.	8ff#\	.
.	.	.	.	.	.	8ee\	.
.	.	.	.	.	.	8dd\J	.
4AA/	-cze	4G#/	-cze	4d\	-cze	8cc#\L	-cze
.	.	.	.	.	.	8b\J	.
!	!	!	!	!LO:LB:g=original	!	!	!
=28	=28	=28	=28	=28	=28	=28	=28
2AA/	lu-	8G#/L	lu-	8d\L	Lu-	8b\L	Lu-
.	.	8A/J	.	8c#\J	.	8a\J	.
.	.	2A\	-dow	2c#\	-dow,	2a\	-dow
4AA/	-dow	.	.	.	.	.	.
=29	=29	=29	=29	=29	=29	=29	=29
2D\	w_Dzie-	2B\	w_Dzie-	2f#\	w_Dzie-	4b\	w_Dzie-
.	.	.	.	.	.	4ff#\	.
4C#/	-łach	4A#X\	-łach	4f#\	-łach	4ee\	-łach
!LO:LB:g=original	!	!LO:LB:g=original	!	!	!	!	!
=30	=30	=30	=30	=30	=30	=30	=30
4.C#/	two-	4.A#X\	two-	2f#\	two-	4.ee\	two-
8BB/	.	8B\	.	.	.	8dd\	.
8C#/L	-ich	8A#\L	-ich	4f#\	-ich	8cc#\L	-ich
8D/J	.	8B\J	.	.	.	8b\J	.
=31	=31	=31	=31	=31	=31	=31	=31
2E\	nie-	8E/L	nie-	4c#\	nie-	8a\L	nie-
.	.	8A/J	.	.	.	8cc#\J	.
.	.	4.B\	.	4e\	.	4ee\	.
4E\	-po-	.	.	4d\	-po-	4g#\	-po-
.	.	8E/	-po-	.	.	.	.
=32	=32	=32	=32	=32	=32	=32	=32
.	.	.	.	.	.	8qb/	.
4AA/	-ię-	4E/	-ię-	4c#\	-ię-	4a\	-ię-
4AA/	-ty,	4E/	-ty,	4c#\	-ty,	4a\	-ty,
4r	.	4r	.	4r	.	4r	.
!	!	!	!	!	!	!LO:LB:g=original	!
=33	=33	=33	=33	=33	=33	=33	=33
2E\	ſtwor-	2B\	ſtwor-	2g#X\	ſtwor-	2b\	ſtwor-
4E\	-co	4B\	-co	4g#\	-co	4ee\	-co
=34	=34	=34	=34	=34	=34	=34	=34
2E\	ty-	2B\	ty-	2b\	ty-	2gg#\	ty-
4E\	-lu	4B\	-lu	4g#\	-lu	4ee\	-lu
!	!	!	!	!LO:LB:g=original	!	!	!
=35	=35	=35	=35	=35	=35	=35	=35
2BB/	ſwia-	2B\	ſwia-	4.a\	ſwia-	4.ff#\	ſwia-
.	.	.	.	8g#\	.	8ee\	.
4BB/	-ta	4B\	-ta	8f#\L	-ta	8dd#X\L	-ta
.	.	.	.	8a\J	.	8ff#\J	.
=36	=36	=36	=36	=36	=36	=36	=36
2E\	Cu-	2B\	Cu-	2g#\	cu-	2ee\	Cu-
4G#\	-dow,	4B\	-dow	4b\	-dow	4b\	-dow,
!	!	!LO:LB:g=original	!	!	!	!	!
=37	=37	=37	=37	=37	=37	=37	=37
2E\	Bo-	2B\	Bo-	2g#\	Bo-	4b\	Bo-
.	.	.	.	.	.	4ee\	.
4E\	-że	4B\	-że	4g#\	-że	4dd#X\	-że
!LO:LB:g=original	!	!	!	!	!	!	!
=38	=38	=38	=38	=38	=38	=38	=38
2AA/	wiel-	2A/	Wiel-	2e\	Wiel-	4.dd#X\	Wiel-
.	.	.	.	.	.	8cc#\	.
4AA/	-ki	4F#/	-ki	4e\	-ki	8a\L	.
.	.	.	.	.	.	8g#\J	-ki
=39	=39	=39	=39	=39	=39	=39	=39
2AA#X/	Bo-	2E/	Bo-	2c#\	Bo-	2f#/	Bo-
4AA#/	-że	4E/	-że	4c#\	-że	8g#/L	-że
.	.	.	.	.	.	8f#/J	.
!	!	!	!	!	!	!LO:LB:g=original	!
=40	=40	=40	=40	=40	=40	=40	=40
4BB/	swię-	4D#X/	ſwię-	4d#X\	swię-	4f#/	swię-
4BB/	-ty,	4D#/	-ty,	4d#\	-ty,	4f#/	-ty
4r	.	4r	.	4r	.	4r	.
=41	=41	=41	=41	=41	=41	=41	=41
2A\	ſtwor-	2B\	ſtwor-	2b\	ſtwor-	8dd#X\L	ſtwor-
.	.	.	.	.	.	8ff#\	.
.	.	.	.	.	.	8ee\	.
.	.	.	.	.	.	8dd#\J	.
4A\	-co	4B\	-co	4b\	-co	8cc#\L	-co
.	.	.	.	.	.	8b\J	.
=42	=42	=42	=42	=42	=42	=42	=42
8G#\L	ty-	2B\	ty-	2b\	ty-	2ee\	ty-
8B\	.	.	.	.	.	.	.
8A\	.	.	.	.	.	.	.
8G#\J	.	.	.	.	.	.	.
8F#\L	-lu	4B\	-lu	4b\	-lu	4b\	-lu
8E\J	.	.	.	.	.	.	.
!	!	!	!	!LO:LB:g=original	!	!	!
=43	=43	=43	=43	=43	=43	=43	=43
8D#X\L	ſwia-	2B\	ſwia-	2a\	ſwia-	2ff#\	ſwia-
8F#\	.	.	.	.	.	.	.
8E\	.	.	.	.	.	.	.
8D#\J	.	.	.	.	.	.	.
8C#/L	-ta	4B\	-ta	4a\	-ta	4b\	-ta
8BB/J	.	.	.	.	.	.	.
!LO:LB:g=original	!	!	!	!	!	!	!
=44	=44	=44	=44	=44	=44	=44	=44
2E\	Cu-	2B\	Cu-	2g#\	cu-	2gg#\	Cu-
4E\	-dow,	4B\	-dow	4g#\	-dow	4ee\	-dow
!	!	!LO:LB:g=original	!	!	!	!	!
=45	=45	=45	=45	=45	=45	=45	=45
2GG#/	Bo-	2B\	Bo-	2g#\	Bo-	2ee\	Bo-
4GG#/	-że	4B#X\	-że	4f#\	-że	4dd#X\	-że
=46	=46	=46	=46	=46	=46	=46	=46
2AA/	Wiel-	2c#\	Wiel-	2e\	Wiel-	8cc#\L	wiel-
.	.	.	.	.	.	8ff#\	.
.	.	.	.	.	.	8aa\	.
.	.	.	.	.	.	8gg#\J	.
4AA/	-ki	4c#\	-ki	4f#\	-ki	8ff#\L	-ki
.	.	.	.	.	.	8ee\J	.
!	!	!	!	!	!	!LO:LB:g=original	!
=47	=47	=47	=47	=47	=47	=47	=47
2BB/	Bo-	2B\	Bo-	8f#\L	Bo-	2dd#X\	Bo-
.	.	.	.	8g#\	.	.	.
.	.	.	.	8a\	.	.	.
.	.	.	.	8g#\J	.	.	.
4BB/	-że	4B\	-że	8a\L	-że	4dd#\	-że
.	.	.	.	8f#\J	.	.	.
=48	=48	=48	=48	=48	=48	=48	=48
2E\	ſwię-	2B\	swię-	8g#\L	swię-	8ee\L	swię-
.	.	.	.	8f#\	.	8dd#X\	.
.	.	.	.	8g#\	.	8ee\	.
.	.	.	.	8f#\J	.	8dd#\J	.
8E\L	-ty	8B\L	-ty	8g#\L	-ty	8ee\L	-ty
8A\J	.	8c#\J	.	8cc#\J	.	8ff#\J	.
=49	=49	=49	=49	=49	=49	=49	=49
2G#\	Bo-	2d#X\	Bo-	2b#X\	Bo-	2gg#\	Bo-
4G#\	-że	4d#\	-że	4b#\	-że	4ff#\	-że
!	!	!	!	!LO:LB:g=original	!	!	!
=50	=50	=50	=50	=50	=50	=50	=50
!LO:SIC:v:l:s=wiel-	!	!	!	!	!	!	!
2A\	wie-	2c#\	Wiel-	2cc#\	wiel-	4ee\	wiel-
.	.	.	.	.	.	4aa\	.
4F#\	-ki	4c#\	-ki	8bn\L	-ki	8gg#\L	-ki
.	.	.	.	8a\J	.	8ff#\J	.
=51	=51	=51	=51	=51	=51	=51	=51
2B\	Bo-	2B\	Bo-	2g#\	Bo-	2ee\	Bo-
.	.	.	.	.	.	32qqff#/LLL	.
.	.	.	.	.	.	32qqee/	.
!	!	!	!	!	!	!LO:SIC:v:s=32qdd#	!
.	.	.	.	.	.	32qqdd/	.
.	.	.	.	.	.	32qqee/JJJ	.
4BB/	-że	4B\	-że	4a\	-że	8ff#\L	-że
!	!	!	!	!	!	!LO:SIC:v:s=8dd#	!
.	.	.	.	.	.	8dd\J	.
!LO:LB:g=original	!	!	!	!	!	!	!
=52	=52	=52	=52	=52	=52	=52	=52
4E\	swię-	4B\	swię-	4g#\	swię-	4ee\	swię-
4E\	-ty.	4B\	-ty,	4g#\	-ty.	4ee\	-ty.
4r	.	4r	.	4r	.	4r	.
!	!	!LO:LB:g=original	!	!	!	!LO:PB:g=original	!
=53	=53	=53	=53	=53	=53	=53	=53
2E\	Tyś	2G#/	Tys	(2g#\	Tys	2b\	Tys
4G#\	.	4E/	.	4b\)	.	4g#\	.
=54	=54	=54	=54	=54	=54	=54	=54
2E\	mą,	2B\	mą,	2g#\	mą	2dd\	mą
4E\	po-	4G#/	po-	4e\	po-	4b\	po-
=55	=55	=55	=55	=55	=55	=55	=55
4AA/	-cie-	8A\L	-cie-	4a\	-cie-	8cc#\L	-cie-
.	.	8B\J	.	.	.	8dd\J	.
4AA/	-chą	4c#\	-chą	4a\	-chą	4ee\	-chą
4D\	ie-	8d\L	ie-	4f#\	ie-	8ff#\L	ie-
.	.	8B\J	.	.	.	8dd\J	.
=56	=56	=56	=56	=56	=56	=56	=56
4E\	-dy-	4A\	-dy-	4e\	-dy-	4cc#\	-dy-
4E\	-ną	4G#\	-ną,	4e\	-ną,	4b\	-ną
4r	.	4r	.	4r	.	4r	.
!	!	!	!	!LO:PB:g=original	!	!	!
=57	=57	=57	=57	=57	=57	=57	=57
4r	.	2G#/	Ty	4r	.	2b\	Ty
4r	.	.	.	4r	.	.	.
8B\L	Tys	8E/L	.	8dd\L	Ty	8g#\L	.
8G#\J	.	8G#/J	.	8b\J	.	8b\J	.
=58	=58	=58	=58	=58	=58	=58	=58
2E\	ul-	2B\	ul-	2g#\	ul-	2dd\	ul-
4E\	-gą	4G#/	-gą	4e\	-gą	4b\	-gą
!LO:PB:g=original	!	!	!	!	!	!	!
=59	=59	=59	=59	=59	=59	=59	=59
4AA/	Nie-	4A\	Nie-	4e\	Nie-	8cc#\L	nie-
.	.	.	.	.	.	8ee\J	.
!	!	!	!	!	!	!LO:LB:g=original	!
4AA/	-szczęść	4A\	-szczęść	4c#\	-szczęść	4aa\	-szczęść
4C#/	Ko-	4A\	Ko-	4e\	ko-	8ee\L	Ko-
.	.	.	.	.	.	8cc#\J	.
=60	=60	=60	=60	=60	=60	=60	=60
4E\	-le-	4G#/	-le-	4e\	-le-	4b\	-le-
4E\	-i,	4G#/	-i,	4e\	-i,	4b\	-i
4r	.	4r	.	4r	.	4r	.
!	!	!LO:PB:g=original	!	!	!	!	!
=61	=61	=61	=61	=61	=61	=61	=61
4r	.	4r	.	4r	.	4cc#\	Ty
4A\	Ty	4A\	Ty	4a\	Ty	4cc#\	ra-
8Gn\	ra-	8A\	ra-	8a\	ra-	4cc#\	-zem
8G\	-zem	8A\	-zem	8a\	-zem	.	.
=62	=62	=62	=62	=62	=62	=62	=62
4Gn\	z_ſmut-	4c#\	z_ſmut-	4a\	z_ſmut-	4ee\	z_ſmut-
4F#\	-kiem,	4d\	-kiem,	4a\	-kiem	4dd\	-kiem,
4r	.	4r	.	4r	.	4r	.
!	!	!	!	!LO:LB:g=original	!	!	!
=63	=63	=63	=63	=63	=63	=63	=63
4r	.	4r	.	4r	.	4dd#X\	ſmut-
4B\	z_ſmu-	4B\	z_ſmu-	4b\	ſmu-	4dd#\	-ku
8A\	-tku	8B\	-tku	8b\	-tku	4dd#\	przy-
8A\	przy-	8B\	przy-	8b\	przy-	.	.
=64	=64	=64	=64	=64	=64	=64	=64
4A\	-czy-	4d#X\	-czy-	4b\	-czy-	4ff#\	-czy-
4G#X\	-ną	4e\	-ną,	4b\	-ną	4ee\	-ną
4r	.	4r	.	4r	.	4r	.
!LO:LB:g=original	!	!	!	!	!	!LO:LB:g=original	!
=65	=65	=65	=65	=65	=65	=65	=65
4r	.	4r	.	4r	.	2ee#X\	zsy-
4c#\	zse-	4c#\	zse-	4cc#\	zsy-	.	.
4B\	-łasz	4c#\	-łasz	4cc#\	-łasz	4ee#\	-łasz
=66	=66	=66	=66	=66	=66	=66	=66
2A\	nam	2c#\	nam	2cc#\	nam	2ff#\	nam
4E#X\	pro-	4c#\	pro-	4b\	pro-	4gg#\	pro-
!	!	!LO:LB:g=original	!	!	!	!	!
=67	=67	=67	=67	=67	=67	=67	=67
2F#\	-myk	2c#\	-myk	2a\	-myk	2aa\	-myk
4D\	na-	4F#/	Na-	4f#\	na-	4b#X\	na-
=68	=68	=68	=68	=68	=68	=68	=68
!	!	!LO:SIC:v:s=4G#	!	!	!	!	!
4C#/	-dzie-	4F#/	-dzie-	4e#X\	-dzie-	4cc#\	-dzie-
!	!	!LO:SIC:v:s=2G#	!	!	!	!	!
4C#/	-i.	4F#/	-i.	4e#\	-i.	4cc#\	-i.
4r;	.	4r;	.	4r;	.	4r;	.
=69||	=69||	=69||	=69||	=69||	=69||	=69||	=69||
2AA/	Niech	2A\	Niech	2e\	Niech	2cc#\	Niech
4AA/	więc	4A\	więc	4c#\	więc	4a\	więc
!	!	!	!	!LO:LB:g=original	!	!	!
=70	=70	=70	=70	=70	=70	=70	=70
2AA/	wszy-	2c#\	wszy-	2c#\	wszy-	2ee\	wszy-
4AA/	-stko	4A\	-stko	4e\	-stko	4cc#\	-stko
=71	=71	=71	=71	=71	=71	=71	=71
4AA/	co	4G#/	co	4d\	co	4.b\	co
4AA/	ſwiat	4G#/	ſwiat	4d\	ſwiat	.	.
.	.	.	.	.	.	32qqcc#/LLL	.
.	.	.	.	.	.	32qqb/	.
.	.	.	.	.	.	32qqa#X/	.
.	.	.	.	.	.	32qqb/JJJ	.
.	.	.	.	.	.	8dd\	ſwiat
4AA/	po-	4G#/	po-	4d\	po-	8cc#\L	po-
.	.	.	.	.	.	8b\J	.
!LO:LB:g=original	!	!	!	!	!	!LO:LB:g=original	!
=72	=72	=72	=72	=72	=72	=72	=72
2AA/	-sia-	2E/	-sia-	2c#\	-sia-	2a\	-sia-
.	.	.	.	.	.	16qqcc#/LL	.
.	.	.	.	.	.	16qqb/JJ	.
4AA/	-da,	4A\	-da,	4c#\	-da	4a\	-da
=73	=73	=73	=73	=73	=73	=73	=73
4F#\	co	4A\	co	4a\	co	4cc#\	co
8FF#/L	nad	4c#\	nad	4a\	nad	4ff#\	nad
8GG#/J	.	.	.	.	.	.	.
8AA/L	niem	4c#\	niem	4f#\	niem	4ee\	nim
8AA#X/J	.	.	.	.	.	.	.
!	!	!LO:LB:g=original	!	!	!	!	!
=74	=74	=74	=74	=74	=74	=74	=74
!	!	!LO:SIC:v:l:s=Dłoń	!	!	!	!	!
4BB/	Dłoń	4B\	Dło	2f#\	Dłon	2dd#X\	Dłon
4BB#X/	.	4A\	.	.	.	.	.
4C#/	.	8G#\L	.	8e\L	.	8ee\L	.
.	.	8e\J	.	8a#X\J	.	8ff#\J	.
=75	=75	=75	=75	=75	=75	=75	=75
2BB/	twa	2e\	twa	2b\	twa	2gg#\	twa
4BB/	u-	4d#X\	u-	4a\	u-	4ff#\	u-
=76	=76	=76	=76	=76	=76	=76	=76
4E\	-no-	4B\	-no-	4a\	-no-	4ff#\	-no-
4E\	-si,	4B\	-si,	4g#\	-si	4ee\	-si,
4r	.	4r	.	4r	.	4r	.
!	!	!	!	!LO:LB:g=original	!	!	!
=77	=77	=77	=77	=77	=77	=77	=77
4AA/	twey	4E/	twey	4c#\	twey	4cc#\	twey
4AA/	Wszech-	4E/	Wszech-	4c#\	Wszech-	4cc#\	Wszech-
4AA/	-mo-	4E/	-mo-	4c#\	-mo-	4a\	-mo-
!LO:LB:g=original	!	!	!	!	!	!	!
=78	=78	=78	=78	=78	=78	=78	=78
2AA/	-cno-	2E/	-cno-	2c#\	-cno-	2ee\	-cno-
4AA/	-śći	4E/	-śći	4c#\	-śći	4cc#\	-śći
!	!	!	!	!	!	!LO:LB:g=original	!
=79	=79	=79	=79	=79	=79	=79	=79
2AA/	Hoł-	2E/	Hoł-	2d\	Hoł-	4.b\	Hoł-
.	.	.	.	.	.	8ff#\	.
4AA/	-dy	4E/	-dy	4e\	-dy	8ee\L	-dy
.	.	.	.	.	.	8dd\J	.
=80	=80	=80	=80	=80	=80	=80	=80
4AA/	skła-	4E/	skła-	8e\L	skła-	4dd\	skła-
.	.	.	.	8c#\J	.	.	.
2AA/	-da	4E/	-da	2c#\	-da	2cc#\	-da
.	.	4r	.	.	.	.	.
!	!	!LO:LB:g=original	!	!	!	!	!
=81	=81	=81	=81	=81	=81	=81	=81
4D\	i	4A\	i	4f#\	i	4b\	i
4D\	Cie-	4A\	Cie-	4f#\	Cie-	4ff#\	cie-
4C#/	-bie	4G#/	-bie	4f#\	-bie	4ee\	-bie
=82	=82	=82	=82	=82	=82	=82	=82
4.C#/	Cie-	4.G#/	Cie-	2f#\	Cie-	4.ee\	Cie-
8BB/	.	8F#/	.	.	.	8dd\L	.
8C#/L	-bie	8G#/L	-bie	4f#\	-bie	8cc#\	-bie,
8D/J	.	8A/J	.	.	.	8b\J	.
=83	=83	=83	=83	=83	=83	=83	=83
2E\	ſtwor-	2E/	ſtwor-	2c#\	ſtwor-	2a\	ſtwor-
4E\	-cą	4G#/	-cą	4e\	-cą	4b\	-cą
!	!	!	!	!LO:LB:g=original	!	!	!
=84	=84	=84	=84	=84	=84	=84	=84
4AA/	gło-	4G#/	gło-	4e\	gło-	4b\	gło-
4AA/	-si	4A/	-si,	4e\	-si,	4cc#\	-si
4r	.	4r	.	4r	.	4r	.
!LO:LB:g=original	!	!	!	!	!	!LO:LB:g=original	!
=85	=85	=85	=85	=85	=85	=85	=85
4C#/	i	4e\	i	4a\	i	4ee\	i
4C#/	Cie-	4e\	cie-	4a\	Cie-	4aa\	Cie-
4C#/	-bie	4e\	-bie	4a\	-bie	4ggn\	-bie
=86	=86	=86	=86	=86	=86	=86	=86
2D\	Cie-	2d\	Cie-	2a\	Cie-	4.ggn\	Cie-
.	.	.	.	.	.	8ff#\L	.
4D\	-bie	4B\	-bie	4f#\	-bie	8dd\	-bie
.	.	.	.	.	.	8b\J	.
=87	=87	=87	=87	=87	=87	=87	=87
2E\	ſtwor-	2A\	ſtwor-	2e\	ſtwor-	2cc#\	ſtwor-
4E\	-cą	4G#/	-cą	4d\	-cą	4b\	-cą
=88	=88	=88	=88	=88	=88	=88	=88
4AA/	gło-	4E/	gło-	4c#\	gło-	4b\	gło-
4AA/	-si.	4E/	-si.	4c#\	-si.	4a\	-si.
4r	.	4r	.	4r	.	4r	.
==	==	==	==	==	==	==	==
*-	*-	*-	*-	*-	*-	*-	*-
!!!system-decoration: [(s1,s2,s3,s4)]
!!!ENC: Marta Lawrence
!!!END: 2021-01-18
!!!ENC: Andrzej Kubiczek
!!!END: 2021-01-15
!!!YEC: Copyright 2022 Narodowy Instytut Fryderyka Chopina (https://polishscores.org)
!!!YEM: License CC-BY-4.0 (https://creativecommons.org/licenses/by/4.0)
